24x24/apps/livepatch.svg

<svg xmlns="http://www.w3.org/2000/svg" width="24" height="24" version="1">
 <circle style="opacity:0.2" cx="12" cy="12.5" r="10"/>
 <circle style="fill:#ac2175" cx="12" cy="12" r="10"/>
 <path style="opacity:0.2" d="M 3,12.5 H 5 C 5,16.366 8.1338,19.5 12,19.5 15.866,19.5 19,16.366 19,12.5 19,8.634 15.866,5.5 12,5.5 11.358,5.5 11.293,6.5 11.293,6.5 11.293,6.5 11.358,7.5 12,7.5 14.762,7.5 17,9.738 17,12.5 17,15.262 14.762,17.5 12,17.5 9.239,17.5 7,15.262 7,12.5 H 9 L 6,9.5 Z"/>
 <path style="fill:#f4f4f7" d="M 3,12 H 5 C 5,15.866 8.1338,19 12,19 15.866,19 19,15.866 19,12 19,8.134 15.866,5 12,5 11.358,5 11.293,6 11.293,6 11.293,6 11.358,7 12,7 14.762,7 17,9.238 17,12 17,14.762 14.762,17 12,17 9.239,17 7,14.762 7,12 H 9 L 6,9 Z"/>
 <path style="fill:#f4f4f7;opacity:0.2" d="M 12 2 A 10 10 0 0 0 2 12 A 10 10 0 0 0 2.0098 12.293 A 10 10 0 0 1 12 2.5 A 10 10 0 0 1 21.99 12.207 A 10 10 0 0 0 22 12 A 10 10 0 0 0 12 2 z"/>
</svg>

<svg xmlns="http://www.w3.org/2000/svg" width="24" height="24" version="1"><circle style="opacity:.2" cx="12" cy="12.5" r="10"/><circle style="fill:#ac2175" cx="12" cy="12" r="10"/><path style="opacity:.2" d="M3 12.5h2a7 7 0 1 0 7-7c-.642 0-.707 1-.707 1s.065 1 .707 1a5 5 0 0 1 5 5 5 5 0 1 1-10 0h2l-3-3z"/><path style="fill:#f4f4f7" d="M3 12h2a7 7 0 1 0 7-7c-.642 0-.707 1-.707 1s.065 1 .707 1a5 5 0 0 1 5 5 5 5 0 1 1-10 0h2L6 9z"/><path style="fill:#f4f4f7;opacity:.2" d="M12 2A10 10 0 0 0 2 12a10 10 0 0 0 .01.293A10 10 0 0 1 12 2.5a10 10 0 0 1 9.99 9.707A10 10 0 0 0 22 12 10 10 0 0 0 12 2z"/></svg>
